X: 164
T: Lady Worsleys Fancy
%R: march, reel
B: Chas & Sam Thompson "Twenty Four Country Dances for the Year 1779", London 1779, p.82 #2
F: http://www.vwml.org/browse/browse-collections-dance-tune-books/browse-thompsons1779
Z: 2014 John Chambers <jc:trillian.mit.edu> (added dance description)
M: 2/4
L: 1/8
K: A
% - - - - - - - - - - - - - - - - - - - - - - - - - - - - -
|:\
Aacd | e>feA | GABc | d2c2 |\
Aacd | e>fea | ge {g}fe/^d/ | e2E2 :|
|:\
ae {d}cB/A/ | GAB2 | ce {d}cB/A/ | e2E2 |\
ae {d}cB/A/ | G>AB>d | c/e/c/A/ {c}BA/G/ | A2A,2 :|
% - - - - - - - - - - Dance description - - - - - - - - - -
%%begintext align
%%    Hey contrary sides .|. then on
%% your own sides :|. hands 6 round .|:
%% lead thro' the 3d Cu & cast up lead
%% thro' the 2d Cu. and cast off :|:
%%endtext

%%sep 1 1 500
%%sep 1 1 500
